X:1
T:Title
%%score [ 1 2 3 4 ]
L:1/8
Q:1/4=120
M:4/4
K:D
V:1 treble nm="MusicXML Part"
V:2 treble nm="MusicXML Part"
V:3 treble nm="MusicXML Part"
V:4 bass nm="MusicXML Part"
V:1
"^O Lamm Gottes, unschuldig" D4 F4 | A4 A4 | (B2 A2) B4 | A8 | A8 | D4 E4 | F4 G4 | %7
w: O Lamm|Got- tes,|un * schul-|dig|am|Kreu- zes-|stamm ge-|
w: |||||||
"^Johannes Jeep (1582-1644)""^Text: Nikolaus Decius (ca.1485-1546)" (E2 D2 E4) | D8 | D4 F4 | %10
w: schlach * *|tet,|all- zeit|
w: |||
 A4 A4 |[M:4/4] (B2 A2) B4 | A8 | A8 | D4 E4 | F4 G4 | (E2 D2 E4) | D8 | d8 | B4 c4 | d4 B4 | %21
w: er- fund'n|ge * dul-|dig,|wie-|wohl du|warst ver-|ach * *|tet.|All'|Sünd hast|du ge-|
w: |||||||||||
 (A4 ^G4) | A8 | A8 | A6 G2 | F4 B4 | A4"^3. Strophe:" F4 | B8 | B4 A4 | G4 E4 | (A8 | D4 F4) | %32
w: tra *|gen,|sonst|müß- ten|wir ver-|za- gen.|Er-|barm dich|un- ser,|o||
w: ||||||Gib|uns dei-|nen Fried,|o||
 E8 | D8 :| %34
w: Je-|su.|
w: Je-|su.|
V:2
 A,4 D4 | E4 F4 | (F2 E2 F2) E2 | C8 | D8 | A,4 C4 | D4 D4 | (C2 D4 C2) | D8 | A,4 D4 | E4 F4 | %11
w: O Lamm|Got- tes,|un * * schul-|dig|am|Kreu- zes-|stamm ge-|schlach * *|tet,|all- zeit|er- fund'n|
w: |||||||||||
[M:4/4] (F2 E2 F2) E2 | C8 | D8 | A,4 C4 | D4 D4 | (C2 D4 C2) | D8 | F8 | E6 E2 | F4 E4 | %21
w: ge * * dul-|dig,|wie-|wohl du|warst ver-|ach * *|tet.|All'|Sünd hast|du ge-|
w: ||||||||||
 (C3 D E4) | E8 | F8 | F6 D2 | D4 D4- | D2 C2"^3. Strophe:" D4 | D8 | D4 F4 | E4 C4 | %30
w: tra * *|gen,|sonst|müß- ten|wir ver-|* za- gen.|Er-|barm dich|un- ser,|
w: ||||||Gib|uns dei-|nen Fried,|
 (C2 D2 E2 DE | F2 E2 D2) (D2- | D2 CB, C4) | D8 :| %34
w: o * * * *|* * * Je||su.|
w: o * * * *|* * * Je-||su.|
V:3
 F4 A4 | c4 d4- | d2 A4 ^G2 | A8 | F8 | F4 A4 | A4 B4 | (A2 F2 A4) | F8 | F4 A4 | c4 d4- | %11
w: O Lamm|Got- tes,|* un- schul-|dig|am|Kreu- zes-|stamm ge-|schlach * *|tet,|all- zeit|er- fund'n|
w: |||||||||||
[M:4/4] d2 A4 ^G2 | A8 | F8 | F4 A4 | A4 B4 | (A2 F2 A4) | F8 | A8 | ^G4 A4 | A4 ^G4 | (A4 B4) | %22
w: * ge- dul-|dig,|wie-|wohl du|warst ver-|ach * *|tet.|All'|Sünd hast|du ge-|tra *|
w: |||||||||||
 c8 | d8 | d6 B2 | A4 G4 | E4"^3. Strophe:" D4 | G8 | B4 d4 | B4 A4 | (e2 d2 c2 B2 | A8) | A8 | %33
w: gen,|sonst|müß- ten|wir ver-|za- gen.|Er-|barm dich|un- ser,|o * * *||Je-|
w: |||||Gib|uns dei-|nen Fried,|o * * *||Je-|
 F8 :| %34
w: su.|
w: su.|
V:4
 D,4 D,4 | A,,4 D,4 | (B,,2 C,2) (D,2 E,2) | A,,8 | D,8 | D,4 A,,4 | D,4 G,,4 | A,,8 | D,8 | %9
w: O Lamm|Got- tes,|un * schul *|dig|am|Kreu- zes-|stamm ge-|schlach-|tet,|
w: |||||||||
 D,4 D,4 | A,,4 D,4 |[M:4/4] (B,,2 C,2) (D,2 E,2) | A,,8 | D,8 | D,4 A,,4 | D,4 G,,4 | A,,8 | D,8 | %18
w: all- zeit|er- fund'n|ge * dul *|dig,|wie-|wohl du|warst ver-|ach-|tet.|
w: |||||||||
 D,8 | E,4 A,,4 | D,4 E,4 | (F,2 A,2 E,4) | A,,8 | D,8 | D,6 G,2 | D,4 G,,4 | %26
w: All'|Sünd hast|du ge-|tra * *|gen,|sonst|müß- ten|wir ver-|
w: ||||||||
 A,,4"^3. Strophe:" D,4 | G,,8 | %28
w: za- gen.|Er-|
w: |Gib|
 G,4"^© 2010 by CPDL. This edition can be fully distributed, duplicated, performed, and recorded. Edited by Juliane Claudi" D,4 | %29
w: barm dich|
w: uns dei-|
 E,4 A,,4 | (A,,2 B,,2 C,4 | D,8) | A,,8 | D,8 :| %34
w: un- ser,|o * *||Je-|su.|
w: nen Fried,|o * *||Je-|su.|

